X: 42876
T: Wild Swans At Coole, The
R: reel
M: 4/4
K: Dmixolydian
dc|:Addc dcAG|cBcG EFGE|DA,~A,2 =FA,~A,2|=FEDB, CB,G,B,|
~A,2=FE FEDC|_B,CDE =FGA^c|defg ag (3fga|ge^ce ~d3A|
dace dcAG|cBcG EFGE|DA,~A,2 =FA,~A,2|=FEDB, CB,G,B,|
~A,2=FE FEDC|_B,CD=F _Bcd=f|ecde dcAG|cAGE D3A||
~d2Ad (3fga fg|ec~c2 acgc|d2Ad fgag|ea^ce ~d3f|
~a3b ag (3efg|fdAF AcE^C|A,^CEA ^cege|fge^c ~d3A|
~d2Ad (3fga fg|ec~c2 acgc|d2Ad fgag|ea^ce ~d3f|
~a3b ag (3efg|fded (3cde AB|c3d (3efg ed|cAGE D4:|

